X:1
T:Wonderful Grace of Jesus
T:Text: Haldor Lillenas (1885-1959) Tune: Haldor Lillenas (1885-1959)
T:Irregular WONDERFUL GRACE www.hymnary.org/text/wonderful_grace_of_jesus
T:Wonderful Grace of Jesus
T:This hymn is in the public domain.  You may freely use this score for personal and congregational worship.  If you reproduce the score, please credit Hymnary.org as the source. 
T:This hymn is in the public domain.  You may freely use this score for personal and congregational worship.  If you reproduce the score, please credit Hymnary.org as the source. 
T:This hymn is in the public domain.  You may freely use this score for personal and congregational worship.  If you reproduce the score, please credit Hymnary.org as the source. 
Z:This hymn is in the public domain.  You may freely use this score for personal and congregational worship.  If you reproduce the score, please credit Hymnary.org as the source.
%%score ( 1 2 ) ( 3 4 )
L:1/8
M:4/4
K:C
V:1 treble nm="Piano" snm="Pno."
V:2 treble 
V:3 bass nm="Piano" snm="Pno."
V:4 bass 
V:1
 [EG]2 [EG]>[EG] [EG]2 [EG]2 | [^DA]4 [EG]4 | [Ec]2 [CE]>[DF] [EG]2 [DF]2 | E8 | %4
w: 3~Won- der- ful grace of|Je- sus,|rea- ching the most de-|filed,|
w: 1~Won- der- ful grace of|Je- sus,|grea- ter than all my|sin;|
w: 2~Won- der- ful grace of|Je- sus,|rea- ching to all the|lost,|
 [CE]2 [CE]>[CE] [CE]2 [CE]2 | [CA]4 [Ec]4 | [DB]2 [DB]>[DG] [DA]2 [DA]2 | G6 z2 | %8
w: by its trans- for- ming|po- wer|ma- king me God’s dear|child,|
w: how shall my tongue de-|scribe it,|where shall its praise be-|gin?|
w: by it I have been|par- doned,|saved to the ut- ter-|most;|
 [EG]2 [EG]>[EG] [EG]2 [EG]2 | [^DA]4 [EG]4 | [Ec]2 [Ec]>[Ec] [Ed]2 [Gc]2 | (c4 A2) | [FA][FA] | %13
w: pur- cha- sing peace and|hea- ven|for all e- ter- ni-|ty _|and the|
w: Ta- king a- way my|bur- den,|set- ting my spi- rit|free, _|for the|
w: chains have been torn a-|sun- der,|gi- ving me li- ber-|ty, _|for the|
 [^Dc]2 [DB]>[DA] [Dc]2 [DA]2 | [EG]4 [^D^F]4 | [EG]4 [=Fd]4 | [Ec]6 z2 || %17
w: won- der- ful grace of|Je- sus|rea- ches|me.|
w: won- der- ful grace of|Je- sus|rea- ches|me.|
w: won- der- ful grace of|Je- sus|rea- ches|me.|
"^Refrain" [CE]>[CE] [CE]>[CE] [CE]>[CE] [CE]>[CE] | [B,F]>[B,F] [B,F]>[B,F] [B,F]2 [B,F]2 | %19
w: ||
w: * * * * * * * the|match- less grace of Jes- sus,|
w: Won- der- ful the match- less grace of|Je- * * * sus, *|
 [CE]>[CE] [CE]>[CE] [CE]>[CE] [CE]>[CE] | [DF]>[DF] [DF]>[DF] [DF]4 | [FB]4 [Fd]2 [FB]2 | %22
w: |||
w: |sea, the roll- ing sea;|won- der- ful|
w: dee- per than the migh- ty rol- ling|sea; * * * *||
 [Ec]4 [Ge]2 [Ec]2 | [DB]4 | [CA]2 D2 | [B,G]>[CA] [DB]>[CA] [B,G]2 z2 | %26
w: ||||
w: grace, all suf-|fi-|cient for|me, for e- ven me;|
w: ||||
 C>D [CE]>[DF] [EG]>[FA] [EG]>[CE] | [B,G]4 [B,D]4 | C>D [CE]>[EG] [Ec]>[EB] [Ed]>[Gc] | [Fc]6 | %30
w: ||||
w: broad- er than the scope of my trans-|gres- sions,|great- er far than all my sin and|shame;|
w: ||||
 [FA]2 | [^Dc]>[Dc] [Dc]>[Dc] [D=d]2 [Dc]2 | [Ee]2 [Ec]2 [Ff]2 [Fd]2 | [Ec]4 [FB]4 | [Ec]6 z2 |] %35
w: O|mag- ni- fy the pre- cious|name of Je- sus,|praise his|name!|
w: |||||
w: |||||
V:2
 x8 | x8 | x8 | (C4 D4) | x8 | x8 | x8 | (D4 F2) x2 | x8 | x8 | x8 | F6 | x2 | x8 | x8 | x8 | x8 || %17
 x8 | x8 | x8 | z4 (3FDE (3FGA | x8 | x8 | x4 | x2 C2 | z4 z2 (3FED | C>C x6 | x8 | C>B, x6 | x6 | %30
 x2 | x8 | x8 | x8 | x8 |] %35
V:3
 [C,C]2 [C,C]>[C,C] [C,G,]2 [C,G,]2 | [C,^F,]4 [C,G,]4 | [C,G,]2 [C,G,]>[C,G,] [G,,G,]2 [B,,G,]2 | %3
w: |||
 [C,G,]4 [B,,^G,]4 | [A,,A,]2 [A,,A,]>[A,,A,] [A,,A,]2 [A,,A,]2 | [A,,E,]4 [A,,A,]4 | %6
w: |||
 [D,G,]2 [D,G,]>[D,B,] [D,C]2 [D,C]2 | [G,,B,]6 z2 | [C,C]2 [C,C]>[C,C] [C,G,]2 [C,G,]2 | %9
w: |||
 [C,^F,]4 [C,G,]4 | [C,G,]2 [C,G,]>[C,G,] [C,_B,]2 [C,B,]2 | (A,4 C2) | [F,C][F,C] | %13
w: ||||
 [^F,A,]2 [F,B,]>[F,C] [F,A,]2 [F,C]2 | [G,C]4 [_A,C]4 | [G,C]4 [G,,B,]4 | [C,C]6 z2 || %17
w: ||||
 C,>D, E,>F, G,>A, G,>E, | G,4 D,4 | C,>D, E,>G, C>B, D>C | B,6 z2 | D,>E, F,>G, B,2 G,2 | %22
w: ||||high- er than the moun- tain,|
 C,>D, E,>G, C2 G,2 | ^F,>E, D,>E, | ^F,>C B,>A, | G,6 z2 | %26
w: spark- ling like a foun- tain,|all suf- fi- cient|grace for e- even|me;|
 [C,E,]>[C,F,] [C,G,]>[C,G,] [C,C]>[C,C] [C,G,]>[C,G,] | [D,G,]2 [D,G,]2 G,2 G,2 | %28
w: * * * * * * * trans-|gres- sions, sing it!|
 [E,G,]>[D,G,] [C,G,]>[C,G,] [C,G,]>[C,G,] [C,_B,]>[C,B,] | [F,A,]>[F,A,] [F,A,]>[F,A,] [F,A,]2 | %30
w: |shame, my sin and shame;|
 [F,C]2 | [^F,A,]>[F,A,] [F,A,]>[F,A,] [F,A,]2 [F,A,]2 | [G,C]2 C2 [A,C]2 [_A,C]2 | %33
w: |||
 [G,C]4 [G,,D]4 | [C,C]6 z2 |] %35
w: ||
V:4
 x8 | x8 | x8 | x8 | x8 | x8 | x8 | G,2 F,2 E,2 D,2 | x8 | x8 | x8 | F,6 | x2 | x8 | x8 | x8 | %16
 x8 || C,>D, E,>F, G,>A, G,>E, | G,4 D,4 | C,>D, E,>G, C>B, D>C | B,6 x2 | D,>E, F,>G, B,2 G,2 | %22
 C,>D, E,>G, C2 G,2 | ^F,>E, D,>E, | ^F,>C B,>A, | G,6 x2 | x8 | x4 G,2 F,2 | x8 | x6 | x2 | x8 | %32
 x2 _B,2 x4 | x8 | x8 |] %35

